compass-rose.svg

<svg fill="currentColor" viewBox="0 0 24 24"><path d="m15 9-3-9-3 9-9 3 9 3 3 9 3-9 9-3zM4 12l6-2 1 2zm8 8-2-6 2-1zm0-16 2 6-2 1zm2 10-1-2h7zm-5.3 3.3L5 19l1.7-3.7 1.6.5zm8.6-2L19 19l-3.7-1.7.5-1.6zM6.7 8.7 5 5l3.7 1.7-.5 1.5zm8.6-2L19 5l-1.7 3.7-1.6-.5z"/></svg>

<svg  viewBox="0 0 24 24" fill="currentColor"><path  d="M15 9L12 0L9 9L0 12L9 15L12 24L15 15L24 12L15 9M4 12L10 10L11 12H4M12 20L10 14L12 13V20M12 4L14 10L12 11V4M14 14L13 12H20L14 14M8.7 17.3L5 19L6.7 15.3L8.3 15.8L8.7 17.3M17.3 15.3L19 19L15.3 17.3L15.8 15.7L17.3 15.3M6.7 8.7L5 5L8.7 6.7L8.2 8.2L6.7 8.7M15.3 6.7L19 5L17.3 8.7L15.7 8.2L15.3 6.7Z"/></svg>
